src/assets/images/toolbox/html5.svg

<svg
  width="28"
  height="32"
  viewBox="0 0 28 32"
  fill="transparent"
  xmlns="http://www.w3.org/2000/svg">
  <path
    fill="#E44D26"
    d="M28 0L25.4492 28.7967L13.9829 32L2.54822 28.801L0 0H28Z"
  />
  <path
    fill="#F16529"
    d="M14 29.5514L23.2653 26.963L25.4451 2.35484H14V29.5514Z"
  />
  <path
    fill="#EBEBEB"
    d="M9.0412 9.41962H14V5.88729H5.21037L6.15581 16.5692H14V13.0368H9.36158L9.0412 9.41962ZM9.83123 18.3353H6.31243L6.80349 23.8817L13.9839 25.8902L14 25.8858V22.2107L13.9847 22.2147L10.0808 21.1525L9.83123 18.3353Z"
  />
  <path
    fill="white"
    d="M13.9879 16.5692H18.3043L17.8973 21.1504L13.9879 22.2137V25.8886L21.174 23.8817L22.0505 13.9853L22.1359 13.0368H13.9879V16.5692ZM13.9879 9.41962H22.4549L22.7686 5.88729H13.9879V9.41962Z"
  />
</svg>

<svg xmlns="http://www.w3.org/2000/svg" width="28" height="32" fill="transparent" xmlns:v="https://vecta.io/nano">
  <path fill="#e44d26" d="M28 0l-2.551 28.797L13.983 32 2.548 28.801 0 0h28z" />
  <path fill="#f16529" d="M14 29.551l9.265-2.588 2.18-24.608H14v27.197z" />
  <path fill="#ebebeb"
    d="M9.041 9.42H14V5.887H5.21l.945 10.682H14v-3.532H9.362l-.32-3.617zm.79 8.916H6.312l.491 5.546 7.18 2.009.016-.004v-3.675l-.015.004-3.904-1.062-.25-2.817z" />
  <path fill="#fff"
    d="M13.988 16.569h4.316l-.407 4.581-3.909 1.063v3.675l7.186-2.007.877-9.896.085-.949h-8.148v3.532zm0-7.15h8.467l.314-3.532h-8.781V9.42z" />
</svg>
